layout/main/dist/assets/main/img/contacts/linkedin.svg

<svg width="36" height="36" viewBox="0 0 36 36" fill="none" xmlns="http://www.w3.org/2000/svg">
<g clip-path="url(#clip0)">
<path d="M18 35.999C27.9411 35.999 36 27.9401 36 17.999C36 8.0579 27.9411 -0.000976562 18 -0.000976562C8.05888 -0.000976562 0 8.0579 0 17.999C0 27.9401 8.05888 35.999 18 35.999Z" fill="#007AB9"/>
<path d="M28.7547 19.4481V26.8691H24.4521V19.9455C24.4521 18.207 23.8309 17.0198 22.2731 17.0198C21.0843 17.0198 20.3781 17.8191 20.0662 18.593C19.9529 18.8696 19.9237 19.2537 19.9237 19.6416V26.8688H15.6209C15.6209 26.8688 15.6787 15.1424 15.6209 13.9286H19.9241V15.7623C19.9154 15.7768 19.9032 15.7909 19.8955 15.8047H19.9241V15.7623C20.4959 14.8825 21.5156 13.6247 23.8017 13.6247C26.6324 13.6247 28.7547 15.4742 28.7547 19.4481ZM11.1198 7.69092C9.64798 7.69092 8.68506 8.65705 8.68506 9.9264C8.68506 11.1688 9.62006 12.1628 11.0633 12.1628H11.0912C12.5919 12.1628 13.525 11.1688 13.525 9.9264C13.4965 8.65705 12.5919 7.69092 11.1198 7.69092ZM8.94079 26.8691H13.242V13.9286H8.94079V26.8691Z" fill="#F1F2F2"/>
</g>
<defs>
<clipPath id="clip0">
<rect width="36" height="36" fill="white"/>
</clipPath>
</defs>
</svg>

<svg width="36" height="36" viewBox="0 0 36 36" fill="none" xmlns="http://www.w3.org/2000/svg"><g clip-path="url(#clip0)"><path d="M18 35.999c9.941 0 18-8.059 18-18s-8.059-18-18-18-18 8.059-18 18 8.059 18 18 18z" fill="#007AB9"/><path d="M28.755 19.448v7.421h-4.303v-6.924c0-1.738-.621-2.925-2.179-2.925-1.189 0-1.895.8-2.207 1.573-.113.277-.142.66-.142 1.049v7.227H15.62s.058-11.727 0-12.94h4.303v1.833l-.029.043h.03v-.043c.57-.88 1.59-2.137 3.877-2.137 2.83 0 4.953 1.85 4.953 5.823zM11.12 7.691c-1.472 0-2.435.966-2.435 2.235 0 1.243.935 2.237 2.378 2.237h.028c1.5 0 2.434-.994 2.434-2.237-.029-1.269-.933-2.235-2.405-2.235zM8.94 26.869h4.302V13.93H8.941v12.94z" fill="#F1F2F2"/></g><defs><clipPath id="clip0"><path fill="#fff" d="M0 0h36v36H0z"/></clipPath></defs></svg>
